X:284
T:The Long Drop
M:4/4
L:1/8
R:reel
C:Richard Twomey
D:Kevin Crawford: In Good Company
Z:Jim Rolfe
K:G
|:gedg edBA|GEEE EDB,D|GG G2 BABc|dBeB dGBd|
gedg edBA|GEEE EDB,D|GGGA (3Bcd eg|dBAc BG (3Bcd:|
|:gBBA BBgB|BggB aged|cBcd e~eef|gdbg edBd|
gBBA BBgB|BggB aged|cBcd edge|dBAc BG[BG][dG]:|
